!!!COM: Mozart, Wolfgang Amadeus
!!!OTL: Adagio and Fugue in C Minor for string quartet
!!!OMD: Adagio
!!!OMV: 1
!!!SCT1: K<sup>1</sup> 546
!!!SCA: Chronologisch-thematisches Verzeichnis sämtlicher Tonwerke Wolfgang Amade Mozarts (L. von Köchel; 1862, 2/1905, 3/1937, 1947)
!!!SCT2: K<sup>6</sup> 546
!!!YOR: Breitkopf & Härtel Edition
!!!ENC: Frances Bennion
!!!CDT: 1756/1/27/-1791/12/5/
!!!OCY: Österreich
!!!YEC: Copyright (c) 1994, 2000 Center for Computer Assisted Research in the Humanities
!!!YEM: Rights to all derivative editions reserved.
!!!YEM: Refer to licensing agreement for further details.
!!!YEN: United States of America
**kern	**kern	**kern	**kern
*k[b-e-a-]	*k[b-e-a-]	*k[b-e-a-]	*k[b-e-a-]
*c:	*c:	*c:	*c:
*clefC	*clefF	*clefG	*clefG
*M3/4	*M3/4	*M3/4	*M3/4
4CC	8.r	8.r	8.r
.	16c	16e-	16g
8.r	[2g	4..cc	4..ee-
16C	.	.	.
8.G	.	.	.
16F	.	16b	16dd
=2	=2	=2	=2
4E-	8.g]	8.cc	8.cc
.	16e-	16c	16g
8.r	4..c	4..ee-	4..gg
16E-	.	.	.
8.GG	.	.	.
16BB	16G	16dd	16ff
=3	=3	=3	=3
4C	8.g	8.cc	8.ee-
.	16e-	16g	16cc
8.r	4..g	4..ee-	4..ccc
16G	.	.	.
8.C	.	.	.
16E	16c	16gg	16bb-
=4	=4	=4	=4
4F	4cc	4ff	4aa-
4C	4cc	4ee-	4gg
4r	4r	4r	4r
=5	=5	=5	=5
2.r	2.r	2.r	8.d-
.	.	.	16c
.	.	.	8.d-
.	.	.	16c
.	.	.	8.d-
.	.	.	16c
=6	=6	=6	=6
8FF	8F	8A-	4d-
8FF	8F	8A-	.
8FF	8F	8A-	4f
8FF	8F	8A-	.
8FF	8F	8A-	4a-
8FF	8F	8A-	.
=7	=7	=7	=7
8FF	4D	[2G	4B
8FF	.	.	.
8EE-	4E-	.	4c
8EE-	.	.	.
8BB	[4G	8G]	4d
8BB	.	8B	.
=8	=8	=8	=8
8C	8G]	8d	8f
8FF#	8A	8c	8e-
4GG	4D	4B	4d
4r	4r	4r	4r
=9	=9	=9	=9
8.r	4c 4C	4gg 4cc 4e-	4ccc 4ee- 4g
16GG	.	.	.
4..E-	8.r	8.r	8.r
.	16C	16G	16g
.	8.G	8.G	8.A
16D	16F	16G	16B
=10	=10	=10	=10
8.C	4E-	4G	4c
16GG	.	.	.
4..G	8.r	8.r	8.r
.	16B	16d	16g
.	8.c	8.e-	8.a
16F	16g	16d	16b
=11	=11	=11	=11
8.E-	4g	4c	4cc
16C	.	.	.
4..c	8.r	8.r	8.r
.	16g	16e	16cc
.	8.a-	8.f	8.dd
16B-	16g	16d-	16ee
=12	=12	=12	=12
4A-	4f	4c	4ff
4G	4cc	4ee	4bb-
4r	4r	4r	4r
=13	=13	=13	=13
8.FF	2.r	2.r	2.r
16EE	.	.	.
8.FF	.	.	.
16EE	.	.	.
8.FF	.	.	.
16EE	.	.	.
=14	=14	=14	=14
4FF	8f	8dd-	8aa-
.	8f	8dd-	8aa-
4AA-	8f	8dd-	8aa-
.	8f	8dd-	8aa-
4D-	8f	8dd-	8aa-
.	8f	8dd-	8aa-
=15	=15	=15	=15
8EE-	2.b-	2.dd-	8.gg-
8EE-	.	.	.
.	.	.	16ff
8EE-	.	.	8.gg-
8EE-	.	.	.
.	.	.	16ff
8EE-	.	.	8.gg-
8EE-	.	.	.
.	.	.	16ff
=16	=16	=16	=16
8AA-	4a-	4cc	[4gg-
8AA-	.	.	.
8AA-	4e-	2c	16gg-]
.	.	.	16ff
8AA-	.	.	16ee-
.	.	.	16dd-
8AA-	4E-	.	16cc
.	.	.	16b-
8AA-	.	.	16a-
.	.	.	16g-
=17	=17	=17	=17
8AA	8.C	[2e-	2g-
8AA	.	.	.
.	16D-	.	.
8AA	8.C	.	.
8AA	.	.	.
.	16D-	.	.
8AA	8.C	8.e-]	4f
8AA	.	.	.
.	16E-	16c	.
=18	=18	=18	=18
8BB-	2E-	2A	8.f
8BB-	.	.	.
.	.	.	16g-
8BB-	.	.	8.f
8BB-	.	.	.
.	.	.	16g-
8BB-	4D	8.B-	8.f
8BB-	.	.	.
.	.	16f	16a-
=19	=19	=19	=19
8BB	8.D	[2f	2a-
8BB	.	.	.
.	16E-	.	.
8BB	8.D	.	.
8BB	.	.	.
.	16E-	.	.
8BB	8.D	8.f]	4g
8BB	.	.	.
.	16F	16d	.
=20	=20	=20	=20
8C	2F	2B	8.g
8C	.	.	.
.	.	.	16a-
8C	.	.	8.g
8C	.	.	.
.	.	.	16a-
8C	4E	8.c	8.g
8C	.	.	.
.	.	16g	16b-
=21	=21	=21	=21
8C#	8.E	[2g	2b-
8C#	.	.	.
.	16F	.	.
8C#	8.E	.	.
8C#	.	.	.
.	16F	.	.
8C#	8.E	8.g]	4a
8C#	.	.	.
.	16G	16e	.
=22	=22	=22	=22
8D	2F#	8d	8a
8D	.	8a	8cc
8E-	.	[4a	[4cc
8E-	.	.	.
8C#	[4G	16a]	16cc]
.	.	16g	16b-
8C#	.	16f#	16a
.	.	16g	16b-
=23	=23	=23	=23
4..D	8G]	8.b-	8.dd
.	8B-	.	.
.	.	16g	16b-
.	4d	4f#	4a
16C	.	.	.
8.BB-	4r	4r	4r
16AA	.	.	.
=24	=24	=24	=24
4GG	8.r	8.r	8.r
.	16G	16B-	16d
8.r	[2d	4..g	4..b-
16GG	.	.	.
8.D	.	.	.
16C	.	16f#	16a
=25	=25	=25	=25
4BB-	8.d]	8.g	8.g
.	16B-	16G	16d
8.r	4..G	4..b-	4..dd
16BB-	.	.	.
8.DD	.	.	.
16FF#	16D	16a	16cc
=26	=26	=26	=26
4GG	8.d	8.g	8.b-
.	16B-	16d	16g
8.r	4..d	4..b-	4..gg
16D	.	.	.
8.GG	.	.	.
16BB	16G	16dd	16ff
=27	=27	=27	=27
4C	4g	4cc	4ee-
4GG	4g	4b-	4dd
4r	4r	4r	4r
=28	=28	=28	=28
2.r	8.A-	2.r	2.r
.	16G	.	.
.	8.A-	.	.
.	16G	.	.
.	8.A-	.	.
.	16G	.	.
=29	=29	=29	=29
2.r	2.A-	8.g-	2.r
.	.	16f	.
.	.	8.g-	.
.	.	16f	.
.	.	8.g-	.
.	.	16f	.
=30	=30	=30	=30
2.r	[2.A	[2.g-	8.ccc
.	.	.	16bb
.	.	.	8.ccc
.	.	.	16bb
.	.	.	8.ccc
.	.	.	16bb
=31	=31	=31	=31
8.DD	2.A_	[2.f#	[2.ccc
16CC#	.	.	.
8.DD	.	.	.
16CC#	.	.	.
8.DD	.	.	.
16CC#	.	.	.
=32	=32	=32	=32
8DD	2A]	2.f#]	4ccc_
8DD	.	.	.
8DD	.	.	16ccc]
.	.	.	16bb-
8DD	.	.	16aa
.	.	.	16gg
8DD	[4d	.	16ff#
.	.	.	16ee-
8DD	.	.	16dd
.	.	.	16cc
=33	=33	=33	=33
8GG	4d]	8.f	8.b
8GG	.	.	.
.	.	16b	16dd
8AA-	4B	4dd	4ff
8AA-	.	.	.
8FF#	8c	4cc	4ee-
8FF#	8A	.	.
=34	=34	=34	=34
4GG	4G	8.ee-	8.gg
.	.	16cc	16ee-
2r	8.r	8.b	8.dd
.	16d	16B	16g
.	8.e-	8.c	8.a
.	16f	16d	16b
=35	=35	=35	=35
8.r	4e-	4c	4cc 4e- 4G
16GG	.	.	.
4..E-	8.r	8.r	8.r
.	16C	16G	16g
.	8.G	8.G	8.A
16D	16F	16G	16B
=36	=36	=36	=36
8.C	4E-	4G	4c
16GG	.	.	.
4..G	8.r	8.r	8.r
.	16B	16d	16g
.	8.c	8.e-	8.a
16F	16g	16d	16b
=37	=37	=37	=37
8.E-	4g	4c	4cc
16C	.	.	.
4..c	8.r	8.r	8.r
.	16g	16e	16cc
.	8.a-	8.f	8.dd
16B-	16g	16d-	16ee
=38	=38	=38	=38
4A-	4a-	4c	4ff
4G	4cc	4ee	4bb-
4r	4r	4r	4r
=39	=39	=39	=39
8.FF	2.r	2.r	2.r
16EE	.	.	.
8.FF	.	.	.
16EE	.	.	.
8.FF	.	.	.
16EE	.	.	.
=40	=40	=40	=40
8FF	2.r	8.a-	2.r
8FF	.	.	.
.	.	16g]	.
8FF	.	8.a-	.
8FF	.	.	.
.	.	16g	.
8FF	.	8.a-	.
8FF	.	.	.
.	.	16g	.
=41	=41	=41	=41
8EE	2.r	8a-	8.ccc#
8EE	.	8a-	.
.	.	.	16bb#
8EE	.	8a-	8.ccc#
8EE	.	8a-	.
.	.	.	16bb#
8EE	.	8a-	8.ccc#
8EE	.	8a-	.
.	.	.	16bb#
=42	=42	=42	=42
8EE	8.d	4..g#	4ccc#
8EE	.	.	.
.	16c#	.	.
8EE	8.d	.	[2bb
8EE	.	.	.
.	16c#	16e	.
8EE	8.d	8.f	.
8EE	.	.	.
.	16B	16d	.
=43	=43	=43	=43
8EE	8.c	8.e	4bb]
8EE	.	.	.
.	16B	16d#	.
8EE	8.c	8.e	[2aa
8EE	.	.	.
.	16B	16d#	.
8EE	8.c	8.e	.
8EE	.	.	.
.	16A	16c	.
=44	=44	=44	=44
8EE	8.B-	8.d-	4aa]
8EE	.	.	.
.	16A	16c	.
8EE	8.B-	8.d-	[2gg
8EE	.	.	.
.	16A	16c	.
8EE	8.B-	8.d-	.
8BB-	.	.	.
.	16G	16B-	.
=45	=45	=45	=45
8AA	8.c	4e	4gg]
8AA	.	.	.
.	16B	.	.
8AA-	8.c	4f	4ff
8AA-	.	.	.
.	16B	.	.
8GG	8.c	4g	4ee
8GG	.	.	.
.	16B	.	.
=46	=46	=46	=46
8FF	8.c	4a-	4ee-
8FF	.	.	.
.	16B	.	.
8FF#	8.c	2a	4dd
8FF#	.	.	.
.	16d	.	.
8FF#	8.d	.	4cc
8FF#	.	.	.
.	16e-	.	.
=47	=47	=47	=47
8.GG	8d	8g	4b
.	8B	8d	.
16AA-	.	.	.
8.GG	8B	8d	2r
.	8B	8d	.
16AA-	.	.	.
8.GG	8B	8d	.
.	8B	8d	.
16GG	.	.	.
=48	=48	=48	=48
8FF#	8c	8d	4r
8FF#	8c	8d	.
8FF#	8c	8d	4aa
8FF#	8c	8d	.
8FF#	8c	8a	8.ee-
8FF#	8c	8a	.
.	.	.	16dd
=49	=49	=49	=49
8.GG	8B	8g	4dd
.	8B	8d	.
16FF#	.	.	.
8.GG	8B	8d	2r
.	8B	8d	.
16FF#	.	.	.
8.GG	8B	8d	.
.	8B	8d	.
16GG	.	.	.
=50	=50	=50	=50
8AA-	8F#	8c	4r
8AA-	8F#	8c	.
8AA-	8F#	8c	4ee-
8AA-	8F#	8c	.
8AA-	8c	8e-	8.f#
8AA-	8c	8e-	.
.	.	.	16g
=51	=51	=51	=51
2.GG	4c	4e-	8.g
.	.	.	16f#
.	4B	4d	8.g
.	.	.	16f#
.	4A	4c	8.g
.	.	.	16f#
=52	=52	=52	=52
2.GG	2.B	2.d	2.g
==	==	==	==
*-	*-	*-	*-
!!!RWG1: This file contains only pitch and duration data.
!!!RWG2: Transposing instruments are not transposed.
!!!RWG3: Spines may have incompatible meters.
!!!RWG4: Durations of rests and tied notes may be interpreted.
!!!RWG: Key is interpreted using the Humdrum key tool.
!!!AFT: stage1
!!!END: 1997/04/15
!!!KEY: 692011005
!!!EMD: Converted from MuseData to Humdrum Dec 16, 2000, by Andreas Kornstaedt using muse2kern.
!!!EMD: Manual editing by Craig Sapp, Nov 2001
